icons/log-16.svg

<svg xmlns="http://www.w3.org/2000/svg" width="16" height="16" viewBox="0 0 16 16"><path d="M5 8.25a.75.75 0 01.75-.75h4a.75.75 0 010 1.5h-4A.75.75 0 015 8.25zM4 10.5A.75.75 0 004 12h4a.75.75 0 000-1.5H4z"/><path d="M13-.005c1.654 0 3 1.328 3 3 0 .982-.338 1.933-.783 2.818-.443.879-1.028 1.758-1.582 2.588l-.011.017c-.568.853-1.104 1.659-1.501 2.446-.398.789-.623 1.494-.623 2.136a1.5 1.5 0 102.333-1.248.75.75 0 01.834-1.246A3 3 0 0113 16H3a3 3 0 01-3-3c0-1.582.891-3.135 1.777-4.506.209-.322.418-.637.623-.946.473-.709.923-1.386 1.287-2.048H2.51c-.576 0-1.381-.133-1.907-.783A2.68 2.68 0 010 2.995a3 3 0 013-3zm0 1.5a1.5 1.5 0 00-1.5 1.5c0 .476.223.834.667 1.132A.75.75 0 0111.75 5.5H5.368c-.467 1.003-1.141 2.015-1.773 2.963-.192.289-.381.571-.558.845C2.13 10.711 1.5 11.916 1.5 13A1.5 1.5 0 003 14.5h7.401A2.989 2.989 0 0110 13c0-.979.338-1.928.784-2.812.441-.874 1.023-1.748 1.575-2.576l.017-.026c.568-.853 1.103-1.658 1.501-2.448.398-.79.623-1.497.623-2.143 0-.838-.669-1.5-1.5-1.5zm-10 0a1.5 1.5 0 00-1.5 1.5c0 .321.1.569.27.778.097.12.325.227.74.227h7.674A2.737 2.737 0 0110 2.995c0-.546.146-1.059.401-1.5z"/></svg>

<svg xmlns="http://www.w3.org/2000/svg" width="16" height="16" viewBox="0 0 16 16">
  <defs/>
  <path d="M5,8.25 A0.75 0.75 0 0 1 5.75,7.5 L9.75,7.5 A0.75 0.75 0 0 1 9.75,9 L5.75,9 A0.75 0.75 0 0 1 5,8.25 Z M4,10.5 A0.75 0.75 0 0 0 4,12 L8,12 A0.75 0.75 0 0 0 8,10.5 L4,10.5 Z"/>
  <path d="M13,-0.005 C14.654,-0.005 16,1.323 16,2.995 C16,3.977 15.662,4.928 15.217,5.813 C14.774,6.692 14.189,7.571 13.635,8.401 L13.624,8.418 C13.056,9.271 12.52,10.077 12.123,10.864 C11.725,11.653 11.5,12.358 11.5,13 C11.5,13.716 12.006,14.331 12.708,14.471 C13.41,14.61 14.112,14.234 14.386,13.573 C14.66,12.912 14.428,12.149 13.833,11.752 C13.503,11.517 13.419,11.061 13.645,10.724 C13.871,10.387 14.323,10.29 14.667,10.506 C15.765,11.24 16.254,12.607 15.87,13.871 C15.487,15.135 14.321,16 13,16 L3,16 C1.343,16 0,14.657 0,13 C0,11.418 0.891,9.865 1.777,8.494 C1.986,8.172 2.195,7.857 2.4,7.548 C2.873,6.839 3.323,6.162 3.687,5.5 L2.51,5.5 C1.934,5.5 1.129,5.367 0.603,4.717 C0.224,4.249 0,3.671 0,2.995 C0,1.338 1.343,-0.005 3,-0.005 Z M13,1.495 C12.172,1.495 11.5,2.167 11.5,2.995 C11.5,3.471 11.723,3.829 12.167,4.127 C12.441,4.311 12.563,4.652 12.467,4.968 C12.371,5.284 12.08,5.5 11.75,5.5 L5.368,5.5 C4.901,6.503 4.227,7.515 3.595,8.463 C3.403,8.752 3.214,9.034 3.037,9.308 C2.13,10.711 1.5,11.916 1.5,13 C1.5,13.828 2.172,14.5 3,14.5 L10.401,14.5 C10.146,14.059 10,13.546 10,13 C10,12.021 10.338,11.072 10.784,10.188 C11.225,9.314 11.807,8.44 12.359,7.612 L12.376,7.586 C12.944,6.733 13.479,5.928 13.877,5.138 C14.275,4.348 14.5,3.641 14.5,2.995 C14.5,2.157 13.831,1.495 13,1.495 Z M3,1.495 C2.172,1.495 1.5,2.167 1.5,2.995 C1.5,3.316 1.6,3.564 1.77,3.773 C1.867,3.893 2.095,4 2.51,4 L10.184,4 C10.06,3.68 9.998,3.339 10,2.995 C10,2.449 10.146,1.936 10.401,1.495 Z"/>
</svg>
